source/assets/images/icons/divorce.svg

<svg fill="none" height="50" viewBox="0 0 50 50" width="50" xmlns="http://www.w3.org/2000/svg"><g fill="#000"><path d="m48.9564 27.6405-3.3579-3.3579c-.3813-.381-.9995-.3812-1.381 0-.3814.3814-.3814.9997 0 1.3811l3.3578 3.3579c.632.632.632 1.6603.001 2.2913-.6326.6309-1.6618.6307-2.2932.0011l-12.2807-12.2836 2.3317-2.2503 2.68 2.6801c.1907.1906.4406.286.6905.286s.4998-.0954.6905-.286c.3814-.3814.3814-.9998 0-1.3811l-2.6554-2.6555.1874-.1808c3.2594-3.143 3.3526-8.35335.2075-11.61527-1.5186-1.57343-3.5665-2.46113-5.7664-2.4997-2.1997-.0375-4.2777.77656-5.8502 2.29453l-.5185.49932-.5176-.49854c-1.5733-1.51865-3.6483-2.33154-5.8497-2.29522-2.1991.03858-4.2464.92627-5.7651 2.49971-1.5185 1.57334-2.3331 3.65137-2.2937 5.85118.0393 2.19969.9276 4.24669 2.5008 5.76369l.1865.1799-12.21899 12.2191c-1.390232 1.3941-1.388572 3.661.00371 5.0535.69551.6955 1.60967 1.0433 2.52442 1.0433.61191 0 1.22373-.1566 1.7708-.4679v12.7607c0 1.5672 1.275 2.8423 2.84228 2.8423h33.63298c1.5672 0 2.8423-1.275 2.8423-2.8423v-12.7607c.5467.3109 1.1583.4673 1.7705.4673.9152 0 1.8306-.3476 2.5276-1.0427.673-.673 1.0437-1.5707 1.0437-2.5272.0001-.9566-.3706-1.854-1.0436-2.5273zm-36.4303-18.19685c-.0301-1.67803.5902-3.26201 1.7463-4.45987 1.1562-1.19785 2.7167-1.87373 4.394-1.90322.0382-.00068.0759-.00097.114-.00097 1.6349 0 3.1741.61855 4.3459 1.74951l1.1958 1.15166c.0001.00009.0003.00019.0004.00029l1.134 1.09531-2.9981 2.89356c-.1901.18348-.2978.43618-.2984.70048s.1059.5175.2952.7018l2.9767 2.8987-2.9764 2.8963c-.3865.3761-.395.9943-.0189 1.3808.1914.1968.4455.2956.7.2956.2455 0 .4911-.0919.6809-.2767l3.6955-3.5959c.189-.1838.2954-.4361.2955-.6997s-.1064-.5159-.2952-.6998l-2.9737-2.8959 3.001-2.89641c.1907-.18398.2984-.43749.2985-.70244.0001-.26494-.1076-.51845-.2982-.70253l-1.1346-1.0959.4672-.45c1.1982-1.15645 2.7796-1.77784 4.4605-1.74776 1.6782.02949 3.2392.70528 4.3951 1.90293 2.3973 2.48623 2.3267 6.45781-.1579 8.85361l-10.5717 10.2024-10.5692-10.2027c-1.1979-1.1551-1.8742-2.7152-1.9042-4.39315zm-10.09962 21.87035c-.63194-.632-.63272-1.6606-.00274-2.2923l12.24226-12.2427 2.3327 2.2519-12.28179 12.2822c-.63272.6307-1.66016.6312-2.29043.0009zm14.87202 3.9023c-1.2077 0-2.1902-.9813-2.1902-2.1875 0-1.2078.9825-2.1903 2.1902-2.1903 1.2062 0 2.1875.9825 2.1875 2.1903 0 1.2062-.9813 2.1875-2.1875 2.1875zm-2.4676 1.1364c.6897.5127 1.5438.8167 2.4676.8167.9235 0 1.7772-.3041 2.4666-.8171.9314.5044 1.5229 1.2004 1.5229 2.5535v8.0146h-7.9818v-8.0146c0-1.3522.5921-2.0483 1.5247-2.5531zm17.8723-1.1364c-1.2077 0-2.1902-.9813-2.1902-2.1875 0-1.2078.9825-2.1903 2.1902-2.1903 1.2062 0 2.1875.9825 2.1875 2.1903 0 1.2062-.9813 2.1875-2.1875 2.1875zm-2.4675 1.1364c.6898.5128 1.5437.8167 2.4675.8167.9236 0 1.7773-.3041 2.4667-.8172.9331.5049 1.5256 1.201 1.5256 2.5536v8.0146h-7.9846v-8.0146c0-1.3522.5921-2.0483 1.5248-2.5531zm11.5802 10.5676h-3.1674v-8.0146c0-2.2007-1.0824-3.3787-2.2156-4.0796.2632-.544.4109-1.1537.4109-1.7974 0-2.2847-1.8575-4.1434-4.1406-4.1434-2.2846 0-4.1433 1.8587-4.1433 4.1434 0 .6441.148 1.2543.4117 1.7985-1.1325.701-2.2137 1.879-2.2137 4.0785v8.0146h-3.5168v-8.0146c0-2.201-1.0809-3.3789-2.2131-4.0795.2632-.544.411-1.1537.411-1.7975 0-2.2847-1.8574-4.1434-4.1405-4.1434-2.2846 0-4.1433 1.8587-4.1433 4.1434 0 .6441.148 1.2543.4117 1.7984-1.1326.701-2.2139 1.8791-2.2139 4.0785v8.0146h-3.17008c-.49023 0-.88916-.3989-.88916-.8892v-14.5328l11.11054-11.1107 5.917 5.7117c.1892.1827.4337.274.6782.274.2446 0 .489-.0913.6781-.2739l5.9192-5.7124 11.1084 11.111v14.5332c0 .4904-.3989.8892-.8893.8892z"/><path d="m41.8064 22.8508c-.2484 0-.4964-.0947-.6865-.2847l-.0055-.0056c-.3814-.3813-.3814-.9997 0-1.381s.9996-.3813 1.381 0 .3842 1.0024.0028 1.3839c-.1913.1912-.4417.2874-.6918.2874z"/></g></svg>

<svg width="50" height="50" viewBox="0 0 50 50" fill="none" xmlns="http://www.w3.org/2000/svg">
<path d="M48.9564 27.6405L45.5985 24.2826C45.2172 23.9016 44.599 23.9014 44.2175 24.2826C43.8361 24.664 43.8361 25.2823 44.2175 25.6637L47.5753 29.0216C48.2073 29.6536 48.2073 30.6819 47.5763 31.3129C46.9437 31.9438 45.9145 31.9436 45.2831 31.314L33.0024 19.0304L35.3341 16.7801L38.0141 19.4602C38.2048 19.6508 38.4547 19.7462 38.7046 19.7462C38.9545 19.7462 39.2044 19.6508 39.3951 19.4602C39.7765 19.0788 39.7765 18.4604 39.3951 18.0791L36.7397 15.4236L36.9271 15.2428C40.1865 12.0998 40.2797 6.88945 37.1346 3.62753C35.616 2.0541 33.5681 1.1664 31.3682 1.12783C29.1685 1.09033 27.0905 1.90439 25.518 3.42236L24.9995 3.92168L24.4819 3.42314C22.9086 1.90449 20.8336 1.0916 18.6322 1.12792C16.4331 1.1665 14.3858 2.05419 12.8671 3.62763C11.3486 5.20097 10.534 7.279 10.5734 9.47881C10.6127 11.6785 11.501 13.7255 13.0742 15.2425L13.2607 15.4224L1.04171 27.6415C-0.348522 29.0356 -0.346862 31.3025 1.04542 32.695C1.74093 33.3905 2.65509 33.7383 3.56984 33.7383C4.18175 33.7383 4.79357 33.5817 5.34064 33.2704V46.0311C5.34064 47.5983 6.61564 48.8734 8.18292 48.8734H41.8159C43.3831 48.8734 44.6582 47.5984 44.6582 46.0311V33.2704C45.2049 33.5813 45.8165 33.7377 46.4287 33.7377C47.3439 33.7377 48.2593 33.3901 48.9563 32.695C49.6293 32.022 50 31.1243 50 30.1678C50.0001 29.2112 49.6294 28.3138 48.9564 27.6405ZM12.5261 9.44365C12.496 7.76562 13.1163 6.18164 14.2724 4.98378C15.4286 3.78593 16.9891 3.11005 18.6664 3.08056C18.7046 3.07988 18.7423 3.07959 18.7804 3.07959C20.4153 3.07959 21.9545 3.69814 23.1263 4.8291L24.3221 5.98076C24.3222 5.98085 24.3224 5.98095 24.3225 5.98105L25.4565 7.07636L22.4584 9.96992C22.2683 10.1534 22.1606 10.4061 22.16 10.6704C22.1594 10.9347 22.2659 11.1879 22.4552 11.3722L25.4319 14.2709L22.4555 17.1672C22.069 17.5433 22.0605 18.1615 22.4366 18.548C22.628 18.7448 22.8821 18.8436 23.1366 18.8436C23.3821 18.8436 23.6277 18.7517 23.8175 18.5669L27.513 14.971C27.702 14.7872 27.8084 14.5349 27.8085 14.2713C27.8086 14.0077 27.7021 13.7554 27.5133 13.5715L24.5396 10.6756L27.5406 7.77919C27.7313 7.59521 27.839 7.3417 27.8391 7.07675C27.8392 6.81181 27.7315 6.5583 27.5409 6.37422L26.4063 5.27832L26.8735 4.82832C28.0717 3.67187 29.6531 3.05048 31.334 3.08056C33.0122 3.11005 34.5732 3.78584 35.7291 4.98349C38.1264 7.46972 38.0558 11.4413 35.5712 13.8371L24.9995 24.0395L14.4303 13.8368C13.2324 12.6817 12.5561 11.1216 12.5261 9.44365ZM2.42648 31.314C1.79454 30.682 1.79376 29.6534 2.42374 29.0217L14.666 16.779L16.9987 19.0309L4.71691 31.3131C4.08419 31.9438 3.05675 31.9443 2.42648 31.314ZM17.2985 35.2163C16.0908 35.2163 15.1083 34.235 15.1083 33.0288C15.1083 31.821 16.0908 30.8385 17.2985 30.8385C18.5047 30.8385 19.486 31.821 19.486 33.0288C19.486 34.235 18.5047 35.2163 17.2985 35.2163ZM14.8309 36.3527C15.5206 36.8654 16.3747 37.1694 17.2985 37.1694C18.222 37.1694 19.0757 36.8653 19.7651 36.3523C20.6965 36.8567 21.288 37.5527 21.288 38.9058V46.9204H13.3062V38.9058C13.3062 37.5536 13.8983 36.8575 14.8309 36.3527ZM32.7032 35.2163C31.4955 35.2163 30.513 34.235 30.513 33.0288C30.513 31.821 31.4955 30.8385 32.7032 30.8385C33.9094 30.8385 34.8907 31.821 34.8907 33.0288C34.8907 34.235 33.9094 35.2163 32.7032 35.2163ZM30.2357 36.3527C30.9255 36.8655 31.7794 37.1694 32.7032 37.1694C33.6268 37.1694 34.4805 36.8653 35.1699 36.3522C36.103 36.8571 36.6955 37.5532 36.6955 38.9058V46.9204H28.7109V38.9058C28.7109 37.5536 29.303 36.8575 30.2357 36.3527ZM41.8159 46.9203H38.6485V38.9057C38.6485 36.705 37.5661 35.527 36.4329 34.8261C36.6961 34.2821 36.8438 33.6724 36.8438 33.0287C36.8438 30.744 34.9863 28.8853 32.7032 28.8853C30.4186 28.8853 28.5599 30.744 28.5599 33.0287C28.5599 33.6728 28.7079 34.283 28.9716 34.8272C27.8391 35.5282 26.7579 36.7062 26.7579 38.9057V46.9203H23.2411V38.9057C23.2411 36.7047 22.1602 35.5268 21.028 34.8262C21.2912 34.2822 21.439 33.6725 21.439 33.0287C21.439 30.744 19.5816 28.8853 17.2985 28.8853C15.0139 28.8853 13.1552 30.744 13.1552 33.0287C13.1552 33.6728 13.3032 34.283 13.5669 34.8271C12.4343 35.5281 11.353 36.7062 11.353 38.9056V46.9202H8.18292C7.69269 46.9202 7.29376 46.5213 7.29376 46.031V31.4982L18.4043 20.3875L24.3213 26.0992C24.5105 26.2819 24.755 26.3732 24.9995 26.3732C25.2441 26.3732 25.4885 26.2819 25.6776 26.0993L31.5968 20.3869L42.7052 31.4979V46.0311C42.7052 46.5215 42.3063 46.9203 41.8159 46.9203Z" fill="#000000"/>
<path d="M41.8064 22.8508C41.558 22.8508 41.31 22.7561 41.1199 22.5661L41.1144 22.5605C40.733 22.1792 40.733 21.5608 41.1144 21.1795C41.4958 20.7982 42.114 20.7982 42.4954 21.1795C42.8768 21.5608 42.8796 22.1819 42.4982 22.5634C42.3069 22.7546 42.0565 22.8508 41.8064 22.8508Z" fill="#000000"/>
</svg>
